X: 6467
T: Cat In The Corner, The
R: slide
M: 12/8
K: Gmajor
|:B2B AGA BdB AGA|B2 e d2B A3 AGA|
B2B AGA BdB AGA|B2e d2B G3 G3:|
|:e2e edB e2 f g3|BAB d2B A3 ABd|
e3 edB e2 f g3|BAB d2B G3 G3:|

